frontend/assets/images/logo.svg

<svg height="31" viewBox="0 0 97 31" width="97" xmlns="http://www.w3.org/2000/svg" xmlns:xlink="http://www.w3.org/1999/xlink"><mask id="a" fill="#fff"><path d="m.04177125.074289h4.8086875v4.78791609h-4.8086875z" fill="#fff" fill-rule="evenodd"/></mask><mask id="b" fill="#fff"><path d="m.05545266.05694515h14.27374744v23.24367195h-14.27374744z" fill="#fff" fill-rule="evenodd"/></mask><mask id="c" fill="#fff"><path d="m.08322917.074289h4.8086875v4.78791609h-4.8086875z" fill="#fff" fill-rule="evenodd"/></mask><mask id="d" fill="#fff"><path d="m0 .05694515h17.5972667v23.24367195h-17.5972667z" fill="#fff" fill-rule="evenodd"/></mask><mask id="e" fill="#fff"><path d="m.07951812.04526559h11.03098818v10.40244411h-11.03098818z" fill="#fff" fill-rule="evenodd"/></mask><g fill="none" fill-rule="evenodd"><path d="m-20-13h1220v60h-1220z" fill="#1527c2"/><g fill="#fff" transform="translate(0 .0625)"><path d="m2.446115.0742695c-1.32588958 0-2.40434375 1.0740707-2.40434375 2.39411403s1.07845417 2.39382156 2.40434375 2.39382156 2.40434375-1.07377823 2.40434375-2.39382156-1.07845417-2.39411403-2.40434375-2.39411403" mask="url(#a)" transform="translate(23.010417 .023203)"/><path d="m.23204292 23.3006269h3.46595625c.06922708 0 .13199166-.0401668.16068125-.1029517l10.45446458-22.89241762c.0531687-.1163081-.0322146-.24831243-.1605833-.24831243h-3.4659563c-.0691292 0-.1318937.04026424-.1605833.10295168l-10.45456252 22.89241757c-.05307083.1163081.0323125.2483125.16058334.2483125" mask="url(#b)" transform="translate(24.0875 6.652667)"/><path d="m2.48757292.0742695c-1.32588959 0-2.40434375 1.0740707-2.40434375 2.39411403s1.07845416 2.39382156 2.40434375 2.39382156c1.32588958 0 2.40434375-1.07377823 2.40434375-2.39382156s-1.07845417-2.39411403-2.40434375-2.39411403" mask="url(#c)" transform="translate(43.866667 .023203)"/><path d="m17.4206283.05694515h-3.4659562c-.0691292 0-.1318938.04026424-.1605834.10304917l-4.08253745 8.93954011h-8.13765833c-.1075125 0-.2050375.06278493-.24900209.16047204l-1.31139791 2.91052983c-.04513959.1002219.02849375.2135077.13884583.2135077h8.05922708l-4.87203958 10.6682704c-.05307083.1163081.0323125.2483125.16058333.2483125h3.46595625c.06922709 0 .13199167-.0401668.16058334-.1029517l10.45456253-22.89241762c.0531687-.1163081-.0322146-.24831243-.1605834-.24831243" mask="url(#d)" transform="translate(0 6.652667)"/><path d="m88.2453102 16.6856012h-2.3656667c-.057575 0-.1042812.0503059-.1042812.1123109v.4521685c0 .0620049-.1053583.1121159-.1629333.1121159h-8.1528355c-.057575 0-.1042812.0504034-.1042812.1125059v2.0085327c0 .062005.0467062.1123109.1042812.1123109h8.1528355c.057575 0 .1629333.0502085.1629333.1123109v6.5331421c0 .0619075.0467062.1123109.1042812.1123109h2.3656667c.057575 0 .1040854-.0504034.1040854-.1123109v-6.6217624c0-.0621025.0468042-.1125059.1043792-.1125059h8.2350854c.057575 0 .1041833-.050111.1041833-.1121159v-1.9199124c0-.0621025-.0466083-.1125059-.1041833-.1125059h-8.2350854c-.057575 0-.1043792-.050111-.1043792-.1121159v-.4521685c0-.062005-.0465104-.1123109-.1040854-.1123109"/><path d="m96.684219 26.1518075c-3.9578896-.1114765-6.2973146-2.7413265-7.5708188-5.4024715-.0359354-.0748739.0162542-.1641767.0944896-.1641767h2.5724667c.0362291 0 .0694229.0209608.0878312.0544981 1.0067792 1.8302196 2.4509521 2.9112122 4.8307188 3.1399288.0532666.0050696.0941958.0526457.0941958.1102636l-.0000979 2.1481414c0 .0633698-.0497417.1155281-.1087854.1138163"/><path d="m77.4642446 26.1518075c3.9577916-.1114765 6.2973146-2.7413265 7.5708187-5.4024715.0359355-.0748739-.0162541-.1641767-.0944896-.1641767h-2.5724666c-.0362292 0-.0694229.0209608-.0878313.0544981-1.0067791 1.8302196-2.4509521 2.9112122-4.8308166 3.1399288-.0531688.0050696-.094098.0526457-.094098.1102636v2.1481414c0 .0633698.0497417.1155281.1088834.1138163"/><path d="m82.2474346 11.0463936.0828375.0187185-.0570854.0674645c-.8224021.9556178-2.8349813 2.2483634-4.7713813 2.6626074-.0483708.0104316-.0827396.055278-.0827396.1085087v2.2131687c0 .0722416.0621771.1255698.1275854.1094836.6848292-.1683689 3.0546084-.8443792 4.860975-2.3903118l.0785292-.0670746v2.375493c0 .062005.0466083.1122135.1041833.1122135h2.1235188c.057575 0 .1042813-.0502085.1042813-.1122135v-10.0640142c0-.0619075-.0467063-.11231092-.1042813-.11231092h-2.1235188c-.057575 0-.1041833.05040342-.1041833.11231092v2.62409795l-.0613937-.01842601c-.9334396-.28009486-2.0094459-1.10546317-2.8149084-2.72188255-.0179187-.0358771-.0526791-.05908022-.090475-.05908022h-2.299475c-.0741229 0-.1263125.07994354-.0976229.15355009.6211833 1.5938987 2.3375646 4.37115674 5.1251542 4.98769694"/><path d="m66.6262894 10.9951713h-1.2381563c-.0401458 0-.0768646.0233981-.0953708.0606401l-1.1418063 2.3095883c-.0370125.0747765.0148834.1638843.0953709.1638843h2.3630229c4.9453792 0 6.1433896-2.7184704 7.2068625-5.14543923.5133771-1.17175781.8783125-2.03846278.9769146-2.33006171.0247729-.0731191-.0274167-.14867549-.1016375-.14867549h-2.4150167c-.0422021 0-.0803896.02573792-.0978187.06580718l-.8186813 1.87340862c-.9938542 2.18587083-1.8460229 3.15084793-4.7336833 3.15084793"/><path d="m73.1139344 21.4007394h.9736833c.0593375 0 .1074146-.0503059.1074146-.1122134v-2.2473884c0-.0621025-.0480771-.112311-.1074146-.112311h-.7099937c-4.6595605-.1208902-6.7445-3.6464978-6.9835146-4.1677882-.0179188-.0389968-.0545396-.0617125-.0957625-.0617125h-2.5366292c-.0804875 0-.1279771.0864755-.0954687.1634943.7714854 1.8228102 3.1349 6.2135629 9.4476854 6.5379192"/><path d="m92.0818419 12.0709188c-1.1624667-.5661367-2.2028313-1.8381164-2.4761167-2.17787649-.0329979-.04094669-.0879292-.04923352-.130425-.02027836-.6883542.46776725-1.4961667.88191375-1.7924625 1.02922435-.0601208.0297351-.0785292.1133833-.0389708.1705137 1.0811958 1.5644561 2.0699583 2.1849934 2.2465021 2.2879451.0188.0108216.0390687.0144289.059925.0118941l1.8079333-.223452c.0393625-.0048746.0726542-.0332448.0860687-.0732166l.2924771-.8662175c.0185063-.0549855-.0054833-.1144557-.0549312-.1385363"/><path d="m10.5225265 1.01053509h-5.78139171l.04690209-.07984605c.13884583-.23661338.2637875-.47927127.37296458-.72436646.03329166-.07458148-.01919167-.16105699-.09586042-.16105699h-2.29722291c-.03857917 0-.07333959.0234956-.09096459.06044512-.46148125.96614693-1.14650625 1.67530462-2.52781666 2.21346113-.04102709.01598871-.06961876.05791032-.06961876.10480403v2.09003611c0 .07477646.06854167.12937205.13522292.10850873 1.53699792-.47975873 2.33100417-1.19232865 2.496875-1.32950006.01850625-.01520877.0405375-.02330062.06364584-.02330062h5.36661666c.11417083.00526457.19769375.04182412.25017708.10928867.05385417.06902442.07314376.16719899.05796667.29159894-1.57342291 4.06103433-6.41452083 4.47869058-8.27307708 4.56623851-.05591042.00263228-.09742709.05176831-.09742709.11201844v1.98571951c0 .0633699.04974167.1146508.10868751.1131256 9.2807375-.2467873 10.92231037-5.87871216 10.92231037-8.39449637v-.5753985c0-.24616761-.1243541-.46727974-.5879895-.46727974" mask="url(#e)" transform="translate(85.775 5.677746)"/><path d="m59.1702779 23.0532504c-.2743625-.4648425.0102813-1.2022729.3589625-1.9300516l6.715125-14.4215221c.1452104-.29871586.2348042-.66382386-.4236854-.66382386h-10.1527833c-.0591417 0-.1072188.05020845-.1072188.11221343v2.22584264c0 .06210248.0480771.11231092.1072188.11231092h6.2318083c.0588479.00175486.2004354.01676865.2765167.12050027.0483708.06590467.0609041.15247767.0371104.25747669l-.0036229.01082163-5.8071438 12.74602248c-.5315896 1.2901133-.5565583 2.4795172-.069325 3.2543846.4908563.7800344 1.4662042 1.1756575 2.8992146 1.1756575h14.8945937c.0592396 0 .1074146-.050306.1074146-.1124085v-2.2947695c0-.0621025-.048175-.112311-.1074146-.112311h-13.627552c-.7035313 0-1.1384771-.1572547-1.3292188-.4803436"/><path d="m29.3354319 12.1665001c-.3381063-2.99856519-2.8049209-5.35027016-5.8800917-5.45507419-.0279062-.00107241-.0550292.00302226-.0813687.00887179-.0140021-.0049721-.0284938-.00887179-.0441605-.00887179h-2.1002145c-.0522875 0-.0995813.03032005-.121123.07779872l-1.2130895 2.67576877c-.0396563.08754793.0247729.18679491.1211229.18679491h2.1414375c.4538437-.00653197.7861729.02330061 1.1568854.08062598 1.7253896.26693343 2.7979687 1.52672661 2.7732937 3.19686421-.0235 1.5783974-1.3395979 2.8354608-2.9250645 2.8354608h-7.669225c-.1306209 0-.2491.0760439-.3029542.1943018l-1.2729167 2.7896396c-.0615896.1347341.0376.2880892.1863354.2880892h8.9637813c3.7159375 0 6.6818333-3.1934519 6.2673521-6.8702698"/><path d="m50.1567746 12.1665001c-.3381063-2.99856519-2.8049209-5.35027016-5.8801896-5.45507419-.0279063-.00107241-.0549313.00302226-.0813688.00887179-.0139041-.0049721-.0283958-.00887179-.0440625-.00887179h-2.1003125c-.0521895 0-.0995812.03032005-.1211229.07779872l-1.2130896 2.67576877c-.0395583.08754793.024675.18679491.1212209.18679491h2.1413396c.4539416-.00653197.7862708.02330061 1.1569833.08062598 1.7252917.26693343 2.7978708 1.52672661 2.7731958 3.19686421-.0235 1.5783974-1.3395979 2.8354608-2.9250646 2.8354608h-7.669127c-.1306209 0-.2491.0760439-.3030521.1943018l-1.2729167 2.7896396c-.0614916.1347341.0376979.2880892.1863354.2880892h8.9638792c3.7158396 0 6.6817354-3.1934519 6.2673521-6.8702698"/></g></g></svg>

<?xml version="1.0" encoding="UTF-8"?>
<svg width="97px" height="31px" viewBox="0 0 97 31" version="1.1" xmlns="http://www.w3.org/2000/svg" xmlns:xlink="http://www.w3.org/1999/xlink">
    <!-- Generator: Sketch 61.2 (89653) - https://sketch.com -->
    <title>logo</title>
    <desc>Created with Sketch.</desc>
    <defs>
        <polygon id="path-1" points="0.04177125 0.0742889968 4.85045875 0.0742889968 4.85045875 4.86220509 0.04177125 4.86220509"></polygon>
        <polygon id="path-3" points="0.0554526615 0.0569451484 14.3292001 0.0569451484 14.3292001 23.3006171 0.0554526615 23.3006171"></polygon>
        <polygon id="path-5" points="0.0832291667 0.0742889968 4.89191667 0.0742889968 4.89191667 4.86220509 0.0832291667 4.86220509"></polygon>
        <polygon id="path-7" points="0 0.0569451484 17.5972667 0.0569451484 17.5972667 23.3006171 0 23.3006171"></polygon>
        <polygon id="path-9" points="0.079518125 0.0452655922 11.1105063 0.0452655922 11.1105063 10.4477097 0.079518125 10.4477097"></polygon>
    </defs>
    <g id="页面-1" stroke="none" stroke-width="1" fill="none" fill-rule="evenodd">
        <g id="01VDL-度量数据" transform="translate(-20.000000, -13.000000)">
            <g id="导航条">
                <rect id="矩形" fill="#1527C2" x="0" y="0" width="1220" height="60"></rect>
                <g id="组合logo" transform="translate(20.000000, 13.000000)">
                    <g id="logo" transform="translate(0.000000, 0.062500)">
                        <g id="分组" transform="translate(23.010417, 0.023203)">
                            <mask id="mask-2" fill="white">
                                <use xlink:href="#path-1"></use>
                            </mask>
                            <g id="Clip-2"></g>
                            <path d="M2.446115,0.0742694984 C1.12022542,0.0742694984 0.04177125,1.1483402 0.04177125,2.46838353 C0.04177125,3.78842686 1.12022542,4.86220509 2.446115,4.86220509 C3.77200458,4.86220509 4.85045875,3.78842686 4.85045875,2.46838353 C4.85045875,1.1483402 3.77200458,0.0742694984 2.446115,0.0742694984" id="Fill-1" fill="#FFFFFF" mask="url(#mask-2)"></path>
                        </g>
                        <g id="分组" transform="translate(24.087500, 6.652667)">
                            <mask id="mask-4" fill="white">
                                <use xlink:href="#path-3"></use>
                            </mask>
                            <g id="Clip-4"></g>
                            <path d="M0.232042917,23.3006269 L3.69799917,23.3006269 C3.76722625,23.3006269 3.82999083,23.2604601 3.85868042,23.1976752 L14.313145,0.305257583 C14.3663137,0.188949481 14.2809304,0.0569451484 14.1525617,0.0569451484 L10.6866054,0.0569451484 C10.6174762,0.0569451484 10.5547117,0.0972093947 10.5260221,0.159896829 L0.0714595833,23.0523144 C0.01838875,23.1686225 0.103772083,23.3006269 0.232042917,23.3006269" id="Fill-3" fill="#FFFFFF" mask="url(#mask-4)"></path>
                        </g>
                        <g id="分组" transform="translate(43.866667, 0.023203)">
                            <mask id="mask-6" fill="white">
                                <use xlink:href="#path-5"></use>
                            </mask>
                            <g id="Clip-6"></g>
                            <path d="M2.48757292,0.0742694984 C1.16168333,0.0742694984 0.0832291667,1.1483402 0.0832291667,2.46838353 C0.0832291667,3.78842686 1.16168333,4.86220509 2.48757292,4.86220509 C3.8134625,4.86220509 4.89191667,3.78842686 4.89191667,2.46838353 C4.89191667,1.1483402 3.8134625,0.0742694984 2.48757292,0.0742694984" id="Fill-5" fill="#FFFFFF" mask="url(#mask-6)"></path>
                        </g>
                        <g id="分组" transform="translate(0.000000, 6.652667)">
                            <mask id="mask-8" fill="white">
                                <use xlink:href="#path-7"></use>
                            </mask>
                            <g id="Clip-8"></g>
                            <path d="M17.4206283,0.0569451484 L13.9546721,0.0569451484 C13.8855429,0.0569451484 13.8227783,0.0972093947 13.7940887,0.159994321 L9.71155125,9.09953443 L1.57389292,9.09953443 C1.46638042,9.09953443 1.36885542,9.16231936 1.32489083,9.26000647 L0.0134929162,12.1705363 C-0.0316466671,12.2707582 0.0419866662,12.384044 0.15233875,12.384044 L8.21156583,12.384044 L3.33952625,23.0523144 C3.28645542,23.1686225 3.37183875,23.3006269 3.50010958,23.3006269 L6.96606583,23.3006269 C7.03529292,23.3006269 7.0980575,23.2604601 7.12664917,23.1976752 L17.5812117,0.305257583 C17.6343804,0.188949481 17.5489971,0.0569451484 17.4206283,0.0569451484" id="Fill-7" fill="#FFFFFF" mask="url(#mask-8)"></path>
                        </g>
                        <path d="M88.2453102,16.6856012 L85.8796435,16.6856012 C85.8220685,16.6856012 85.7753623,16.7359071 85.7753623,16.7979121 L85.7753623,17.2500806 C85.7753623,17.3120855 85.670004,17.3621965 85.612429,17.3621965 L77.4595935,17.3621965 C77.4020185,17.3621965 77.3553123,17.4125999 77.3553123,17.4747024 L77.3553123,19.4832351 C77.3553123,19.5452401 77.4020185,19.595546 77.4595935,19.595546 L85.612429,19.595546 C85.670004,19.595546 85.7753623,19.6457545 85.7753623,19.7078569 L85.7753623,26.240999 C85.7753623,26.3029065 85.8220685,26.3533099 85.8796435,26.3533099 L88.2453102,26.3533099 C88.3028852,26.3533099 88.3493956,26.3029065 88.3493956,26.240999 L88.3493956,19.6192366 C88.3493956,19.5571341 88.3961998,19.5067307 88.4537748,19.5067307 L96.6888602,19.5067307 C96.7464352,19.5067307 96.7930435,19.4566197 96.7930435,19.3946148 L96.7930435,17.4747024 C96.7930435,17.4125999 96.7464352,17.3621965 96.6888602,17.3621965 L88.4537748,17.3621965 C88.3961998,17.3621965 88.3493956,17.3120855 88.3493956,17.2500806 L88.3493956,16.7979121 C88.3493956,16.7359071 88.3028852,16.6856012 88.2453102,16.6856012" id="Fill-9" fill="#FFFFFF"></path>
                        <path d="M96.684219,26.1518075 C92.7263294,26.040331 90.3869044,23.410481 89.1134002,20.749336 C89.0774648,20.6744621 89.1296544,20.5851593 89.2078898,20.5851593 L91.7803565,20.5851593 C91.8165856,20.5851593 91.8497794,20.6061201 91.8681877,20.6396574 C92.8749669,22.469877 94.3191398,23.5508696 96.6989065,23.7795862 C96.7521731,23.7846558 96.7931023,23.8322319 96.7931023,23.8898498 L96.7930044,26.0379912 C96.7930044,26.101361 96.7432627,26.1535193 96.684219,26.1518075" id="Fill-11" fill="#FFFFFF"></path>
                        <path d="M77.4642446,26.1518075 C81.4220362,26.040331 83.7615592,23.410481 85.0350633,20.749336 C85.0709988,20.6744621 85.0188092,20.5851593 84.9405737,20.5851593 L82.3681071,20.5851593 C82.3318779,20.5851593 82.2986842,20.6061201 82.2802758,20.6396574 C81.2734967,22.469877 79.8293237,23.5508696 77.4494592,23.7795862 C77.3962904,23.7846558 77.3553612,23.8322319 77.3553612,23.8898498 L77.3553612,26.0379912 C77.3553612,26.101361 77.4051029,26.1535193 77.4642446,26.1518075" id="Fill-13" fill="#FFFFFF"></path>
                        <path d="M82.2474346,11.0463936 L82.3302721,11.0651121 L82.2731867,11.1325766 C81.4507846,12.0881944 79.4382054,13.38094 77.5018054,13.795184 C77.4534346,13.8056156 77.4190658,13.850462 77.4190658,13.9036927 L77.4190658,16.1168614 C77.4190658,16.189103 77.4812429,16.2424312 77.5466512,16.226345 C78.2314804,16.0579761 80.6012596,15.3819658 82.4076262,13.8360332 L82.4861554,13.7689586 L82.4861554,16.1444516 C82.4861554,16.2064566 82.5327637,16.2566651 82.5903387,16.2566651 L84.7138575,16.2566651 C84.7714325,16.2566651 84.8181388,16.2064566 84.8181388,16.1444516 L84.8181388,6.0804374 C84.8181388,6.0185299 84.7714325,5.96812648 84.7138575,5.96812648 L82.5903387,5.96812648 C82.5327637,5.96812648 82.4861554,6.0185299 82.4861554,6.0804374 L82.4861554,8.70453535 L82.4247617,8.68610934 C81.4913221,8.40601448 80.4153158,7.58064617 79.6098533,5.96422679 C79.5919346,5.92834969 79.5571742,5.90514657 79.5193783,5.90514657 L77.2199033,5.90514657 C77.1457804,5.90514657 77.0935908,5.98509011 77.1222804,6.05869666 C77.7434637,7.65259536 79.459845,10.4298534 82.2474346,11.0463936" id="Fill-15" fill="#FFFFFF"></path>
                        <path d="M66.6262894,10.9951713 L65.3881331,10.9951713 C65.3479873,10.9951713 65.3112685,11.0185694 65.2927623,11.0558114 L64.150956,13.3653997 C64.1139435,13.4401762 64.1658394,13.529284 64.2463269,13.529284 L66.6093498,13.529284 C71.554729,13.529284 72.7527394,10.8108136 73.8162123,8.38384477 C74.3295894,7.21208696 74.6945248,6.34538199 74.7931269,6.05378306 C74.8178998,5.98066396 74.7657102,5.90510757 74.6914894,5.90510757 L72.2764727,5.90510757 C72.2342706,5.90510757 72.1960831,5.93084549 72.178654,5.97091475 L71.3599727,7.84432337 C70.3661185,10.0301942 69.5139498,10.9951713 66.6262894,10.9951713" id="Fill-17" fill="#FFFFFF"></path>
                        <path d="M73.1139344,21.4007394 L74.0876177,21.4007394 C74.1469552,21.4007394 74.1950323,21.3504335 74.1950323,21.288526 L74.1950323,19.0411376 C74.1950323,18.9790351 74.1469552,18.9288266 74.0876177,18.9288266 L73.377624,18.9288266 C68.7180635,18.8079364 66.633124,15.2823288 66.3941094,14.7610384 C66.3761906,14.7220416 66.3395698,14.6993259 66.2983469,14.6993259 L63.7617177,14.6993259 C63.6812302,14.6993259 63.6337406,14.7858014 63.666249,14.8628202 C64.4377344,16.6856304 66.801149,21.0763831 73.1139344,21.4007394" id="Fill-19" fill="#FFFFFF"></path>
                        <path d="M92.0818419,12.0709188 C90.9193752,11.5047821 89.8790106,10.2328024 89.6057252,9.89304231 C89.5727273,9.85209562 89.517796,9.84380879 89.4753002,9.87276395 C88.786946,10.3405312 87.9791335,10.7546777 87.6828377,10.9019883 C87.6227169,10.9317234 87.6043085,11.0153716 87.6438669,11.072502 C88.7250627,12.6369581 89.7138252,13.2574954 89.890369,13.3604471 C89.909169,13.3712687 89.9294377,13.374876 89.950294,13.3723412 L91.7582273,13.1488892 C91.7975898,13.1440146 91.8308815,13.1156444 91.844296,13.0756726 L92.1367731,12.2094551 C92.1552794,12.1544696 92.1312898,12.0949994 92.0818419,12.0709188" id="Fill-21" fill="#FFFFFF"></path>
                        <g id="分组" transform="translate(85.775000, 5.677746)">
                            <mask id="mask-10" fill="white">
                                <use xlink:href="#path-9"></use>
                            </mask>
                            <g id="Clip-24"></g>
                            <path d="M10.5225265,1.01053509 L4.74113479,1.01053509 L4.78803688,0.930689043 C4.92688271,0.694075663 5.05182438,0.451417772 5.16100146,0.206322577 C5.19429312,0.131741104 5.14180979,0.0452655922 5.06514104,0.0452655922 L2.76791813,0.0452655922 C2.72933896,0.0452655922 2.69457854,0.0687611935 2.67695354,0.105710708 C2.21547229,1.07185764 1.53044729,1.78101533 0.149136875,2.31917184 C0.108109792,2.33516055 0.079518125,2.37708216 0.079518125,2.42397587 L0.079518125,4.51401198 C0.079518125,4.58878844 0.148059792,4.64338403 0.214741042,4.62252071 C1.75173896,4.14276198 2.54574521,3.43019206 2.71161604,3.29302065 C2.73012229,3.27781188 2.75215354,3.26972003 2.77526188,3.26972003 L8.14187854,3.26972003 C8.25604937,3.2749846 8.33957229,3.31154415 8.39205562,3.3790087 C8.44590979,3.44803312 8.46519938,3.54620769 8.45002229,3.67060764 C6.87659938,7.73164197 2.03550146,8.14929822 0.176945208,8.23684615 C0.121034792,8.23947843 0.079518125,8.28861446 0.079518125,8.34886459 L0.079518125,10.3345841 C0.079518125,10.397954 0.129259792,10.4492349 0.188205625,10.4477097 C9.46894313,10.2009224 11.110516,4.56899754 11.110516,2.05321333 L11.110516,1.47781483 C11.110516,1.23164722 10.9861619,1.01053509 10.5225265,1.01053509" id="Fill-23" fill="#FFFFFF" mask="url(#mask-10)"></path>
                        </g>
                        <path d="M59.1702779,23.0532504 C58.8959154,22.5884079 59.1805592,21.8509775 59.5292404,21.1231988 L66.2443654,6.7016767 C66.3895758,6.40296084 66.4791696,6.03785284 65.82068,6.03785284 L55.6678967,6.03785284 C55.608755,6.03785284 55.5606779,6.08806129 55.5606779,6.15006627 L55.5606779,8.37590891 C55.5606779,8.43801139 55.608755,8.48821983 55.6678967,8.48821983 L61.899705,8.48821983 C61.9585529,8.48997469 62.1001404,8.50498848 62.1762217,8.6087201 C62.2245925,8.67462477 62.2371258,8.76119777 62.2133321,8.86619679 L62.2097092,8.87701842 L56.4025654,21.6230409 C55.8709758,22.9131542 55.8460071,24.1025581 56.3332404,24.8774255 C56.8240967,25.6574599 57.7994446,26.053083 59.232455,26.053083 L74.1270487,26.053083 C74.1862883,26.053083 74.2344633,26.002777 74.2344633,25.9406745 L74.2344633,23.645905 C74.2344633,23.5838025 74.1862883,23.533594 74.1270487,23.533594 L60.4994967,23.533594 C59.7959654,23.533594 59.3610196,23.3763393 59.1702779,23.0532504" id="Fill-25" fill="#FFFFFF"></path>
                        <path d="M29.3354319,12.1665001 C28.9973256,9.16793491 26.530511,6.81622994 23.4553402,6.71142591 C23.427434,6.7103535 23.400311,6.71444817 23.3739715,6.7202977 C23.3599694,6.7153256 23.3454777,6.71142591 23.329811,6.71142591 L21.2295965,6.71142591 C21.177309,6.71142591 21.1300152,6.74174596 21.1084735,6.78922463 L19.895384,9.4649934 C19.8557277,9.55254133 19.9201569,9.65178831 20.0165069,9.65178831 L22.1579444,9.65178831 C22.6117881,9.64525634 22.9441173,9.67508892 23.3148298,9.73241429 C25.0402194,9.99934772 26.1127985,11.2591409 26.0881235,12.9292785 C26.0646235,14.5076759 24.7485256,15.7647393 23.163059,15.7647393 L15.493834,15.7647393 C15.3632131,15.7647393 15.244734,15.8407832 15.1908798,15.9590411 L13.9179631,18.7486807 C13.8563735,18.8834148 13.9555631,19.0367699 14.1042985,19.0367699 L23.0680798,19.0367699 C26.7840173,19.0367699 29.7499131,15.843318 29.3354319,12.1665001" id="Fill-27" fill="#FFFFFF"></path>
                        <path d="M50.1567746,12.1665001 C49.8186683,9.16793491 47.3518537,6.81622994 44.276585,6.71142591 C44.2486787,6.7103535 44.2216537,6.71444817 44.1952162,6.7202977 C44.1813121,6.7153256 44.1668204,6.71142591 44.1511537,6.71142591 L42.0508412,6.71142591 C41.9986517,6.71142591 41.95126,6.74174596 41.9297183,6.78922463 L40.7166287,9.4649934 C40.6770704,9.55254133 40.7413037,9.65178831 40.8378496,9.65178831 L42.9791892,9.65178831 C43.4331308,9.64525634 43.76546,9.67508892 44.1361725,9.73241429 C45.8614642,9.99934772 46.9340433,11.2591409 46.9093683,12.9292785 C46.8858683,14.5076759 45.5697704,15.7647393 43.9843037,15.7647393 L36.3151767,15.7647393 C36.1845558,15.7647393 36.0660767,15.8407832 36.0121246,15.9590411 L34.7392079,18.7486807 C34.6777163,18.8834148 34.7769058,19.0367699 34.9255433,19.0367699 L43.8894225,19.0367699 C47.6052621,19.0367699 50.5711579,15.843318 50.1567746,12.1665001" id="Fill-29" fill="#FFFFFF"></path>
                    </g>
                </g>
            </g>
        </g>
    </g>
</svg>
